public/avatar/hat/279.svg

<svg xmlns:xlink="http://www.w3.org/1999/xlink" height="92.9" width="100.7" xmlns="http://www.w3.org/2000/svg"><use height="21.55" transform="translate(27.15 40.2)" width="22.8" xlink:href="#a"/><defs><g id="a" fill-rule="evenodd"><path d="M9.3-4.7q.95 1.55 1.45 3.65.85 3.3.35 5.7l-.4 1.3q-.35.8-1.15.5L8.15 6q-.75.05-1.9.8L4.45 8Q2.2 9.05 0 9.05q-3.35 0-6.15-1.3l-2.1-1.35q-1.25 1.5-1.9 1l-.9-1.35q-.3-.5-.45-2.75-.1-2.85.55-5.35Q-8.9-9.55-.5-9.55q6.75 0 9.8 4.85" fill="#1a171b" transform="translate(11.5 9.55)"/><path d="M-.55-8.75q8.15 0 10.25 7.3 1.05 3.65.5 7.3-1.45 3-10.4 3-5.6 0-8.55-1.35l-1.85-1.4q-.75-3.7.15-7.4 1.8-7.45 9.9-7.45" fill="#434768" transform="translate(11.5 9.55)"/><path d="M1.65-4.25q-.1.5-1 .7l-3.1-.3q-1.75-.2-1.5 1.8.1.9 1.55 2.3Q-.95 1.6-.95 2.65q.05 1.55-2 2.85Q-4.8 6.65-6.4 6.65L-7.65 7.9q-2.55.2-2.45-3.25L-9.45.1l.2-2.95q.1-1.75 1.05-2.6.65-.6 4.1-2.05l3.6-1.35q.7.25.55 1.55-.15 1.5.4 1.95l1.2 1.1" fill="#4e537a" transform="translate(11.5 9.55)"/><path d="m6-6.15.3.25q1.8 1.55 2.65 3.95.75 2.1 1 5.05.2 3.45-1.55 4.25l-.65.25-.75.2q0-.85.3-1.85.95-2.9-.2-6.05-1.35-3.5-4.4-3.3l1.25-.85q.6-.6.05-1.7-.7-1.4.25-1.2l1.75 1" fill="#292d54" transform="translate(11.5 9.55)"/><path d="m-.25-8.75-3.9 1.1q-2.7 1.35-4 4.05Q-9.5-.85-8.6 1.95q.6 2 .3 2.75L-9 5.9q0 1.45.35 1.45-1.5.05-2.15-2.6-.45-1.95.25-5.45.85-4.4 3.75-6.35 3.05-2.15 6.75-1.8l-.2.1" fill="#83869c" transform="translate(11.5 9.55)"/><path d="m4.75-3.45.9-.1q2.1 1.1.15 2.8Q4.4.45 2.6 0 1.45-.2 1.35-.65q-.1-.45.5-1.15.9-1.15 2.9-1.65" fill="#292d54" transform="translate(11.5 9.55)"/><path d="M4.2-2.3q1.75 0 2.4 2 1.15 3.35-1.65 4.4-1.45.55-2.55-.7-1-1.25-.75-3.05.4-2.65 2.55-2.65" fill="#fff" transform="translate(11.5 9.55)"/><path d="M4.95 1.7q0 2-1.35 2t-1.35-2q0-2 1.35-2t1.35 2" fill="#1a171b" transform="translate(11.5 9.55)"/><path d="m-2.2-.5-.1.4-.85.45-2.3.45Q-7.3.7-7.5-1.1-7.65-2.55-6-3.05q.85-.25 2.8.85 1 .65 1 1.7" fill="#292d54" transform="translate(11.5 9.55)"/><path d="M-4.6-2.3q2.1 0 2.5 2.65.25 1.8-.75 3.05-1.05 1.25-2.5.7Q-8.05 3.05-7-.3q.75-2 2.4-2" fill="#fff" transform="translate(11.5 9.55)"/><path d="M-5.35 1.7q0-2 1.35-2 1.3 0 1.3 2t-1.3 2q-1.35 0-1.35-2" fill="#1a171b" transform="translate(11.5 9.55)"/><path d="M3.6.9q0-1 1-1t1 1q0 1-1 1t-1-1M-4.15.7q0-1 1-1t1 1q0 1-1 1t-1-1" fill="#fff" transform="translate(11.5 9.55)"/><path d="M7.9 7.55q.25.55-2.7 2.25Q1.3 11.95-.1 12h-.1q-2-.05-5.45-2.35-2.55-1.8-2.4-2.1.45-1.1 3.65-2.25l2.1-1.25Q-.95 3.2-.2 3.2q1.25 0 3.95 2Q7.3 6.3 7.9 7.55" fill="#1a171b" transform="translate(11.5 9.55)"/><path d="M7.6 7.75q.05.15-.8.45-1.35.4-2.65 1.3-2.3 1.65-4.3 1.65-1.9 0-4.2-1.6-1.25-.9-2.55-1.25-.85-.25-.85-.5.25-.45 3.8-2.25l1.9-1.35Q-.9 3.25-.2 3.25q1.3 0 3.75 2.3Q7.5 7.5 7.6 7.75" fill="#ffbb2b" transform="translate(11.5 9.55)"/><path d="m1.05 5.4-.25.2-1.4 2.2q-.85 2.3 2 2.65l.85.1q-1.25.6-2.4.6-1.9 0-4.2-1.6-1.25-.9-2.55-1.25-.85-.25-.85-.5.35-.65 2.8-1.55 2.6-.95 4.75-.95l1.25.1" fill="#ffebc0" transform="translate(11.5 9.55)"/></g></defs></svg>

<?xml version="1.0" encoding="UTF-8" standalone="no"?>
<svg xmlns:xlink="http://www.w3.org/1999/xlink" height="92.9px" width="100.7px" xmlns="http://www.w3.org/2000/svg">
  <g transform="matrix(1.0, 0.0, 0.0, 1.0, 38.65, 49.75)">
    <use height="21.55" transform="matrix(1.0, 0.0, 0.0, 1.0, -11.5, -9.55)" width="22.8" xlink:href="#shape0"/>
  </g>
  <defs>
    <g id="shape0" transform="matrix(1.0, 0.0, 0.0, 1.0, 11.5, 9.55)">
      <path d="M9.3 -4.7 Q10.25 -3.15 10.75 -1.05 11.6 2.25 11.1 4.65 L10.7 5.95 Q10.35 6.75 9.55 6.45 L8.15 6.0 Q7.4 6.05 6.25 6.8 L4.45 8.0 Q2.2 9.05 0.0 9.05 -3.35 9.05 -6.15 7.75 L-8.25 6.4 Q-9.5 7.9 -10.15 7.4 L-11.05 6.05 Q-11.35 5.55 -11.5 3.3 -11.6 0.45 -10.95 -2.05 -8.9 -9.55 -0.5 -9.55 6.25 -9.55 9.3 -4.7" fill="#1a171b" fill-rule="evenodd" stroke="none"/>
      <path d="M-0.55 -8.75 Q7.6 -8.75 9.7 -1.45 10.75 2.2 10.2 5.85 8.75 8.85 -0.2 8.85 -5.8 8.85 -8.75 7.5 L-10.6 6.1 Q-11.35 2.4 -10.45 -1.3 -8.65 -8.75 -0.55 -8.75" fill="#434768" fill-rule="evenodd" stroke="none"/>
      <path d="M1.65 -4.25 Q1.55 -3.75 0.65 -3.55 L-2.45 -3.85 Q-4.2 -4.05 -3.95 -2.05 -3.85 -1.15 -2.4 0.25 -0.95 1.6 -0.95 2.65 -0.9 4.2 -2.95 5.5 -4.8 6.65 -6.4 6.65 L-7.65 7.9 Q-10.2 8.1 -10.1 4.65 L-9.45 0.1 -9.25 -2.85 Q-9.15 -4.6 -8.2 -5.45 -7.55 -6.05 -4.1 -7.5 L-0.5 -8.85 Q0.2 -8.6 0.05 -7.3 -0.1 -5.8 0.45 -5.35 L1.65 -4.25" fill="#4e537a" fill-rule="evenodd" stroke="none"/>
      <path d="M6.0 -6.15 L6.3 -5.9 Q8.1 -4.35 8.95 -1.95 9.7 0.15 9.95 3.1 10.15 6.55 8.4 7.35 L7.75 7.6 7.0 7.8 Q7.0 6.95 7.3 5.95 8.25 3.05 7.1 -0.1 5.75 -3.6 2.7 -3.4 L3.95 -4.25 Q4.55 -4.85 4.0 -5.95 3.3 -7.35 4.25 -7.15 L6.0 -6.15" fill="#292d54" fill-rule="evenodd" stroke="none"/>
      <path d="M-0.25 -8.75 L-4.15 -7.65 Q-6.85 -6.3 -8.15 -3.6 -9.5 -0.85 -8.6 1.95 -8.0 3.95 -8.3 4.7 L-9.0 5.9 Q-9.0 7.35 -8.65 7.35 -10.15 7.4 -10.8 4.75 -11.25 2.8 -10.55 -0.7 -9.7 -5.1 -6.8 -7.05 -3.75 -9.2 -0.05 -8.85 L-0.25 -8.75" fill="#83869c" fill-rule="evenodd" stroke="none"/>
      <path d="M4.75 -3.45 L5.65 -3.55 Q7.75 -2.45 5.8 -0.75 4.4 0.45 2.6 0.0 1.45 -0.2 1.35 -0.65 1.25 -1.1 1.85 -1.8 2.75 -2.95 4.75 -3.45" fill="#292d54" fill-rule="evenodd" stroke="none"/>
      <path d="M4.2 -2.3 Q5.95 -2.3 6.6 -0.3 7.75 3.05 4.95 4.1 3.5 4.65 2.4 3.4 1.4 2.15 1.65 0.35 2.05 -2.3 4.2 -2.3" fill="#ffffff" fill-rule="evenodd" stroke="none"/>
      <path d="M4.95 1.7 Q4.95 3.7 3.6 3.7 2.25 3.7 2.25 1.7 2.25 -0.3 3.6 -0.3 4.95 -0.3 4.95 1.7" fill="#1a171b" fill-rule="evenodd" stroke="none"/>
      <path d="M-2.2 -0.5 L-2.3 -0.1 -3.15 0.35 -5.45 0.8 Q-7.3 0.7 -7.5 -1.1 -7.65 -2.55 -6.0 -3.05 -5.15 -3.3 -3.2 -2.2 -2.2 -1.55 -2.2 -0.5" fill="#292d54" fill-rule="evenodd" stroke="none"/>
      <path d="M-4.6 -2.3 Q-2.5 -2.3 -2.1 0.35 -1.85 2.15 -2.85 3.4 -3.9 4.65 -5.35 4.1 -8.05 3.05 -7.0 -0.3 -6.25 -2.3 -4.6 -2.3" fill="#ffffff" fill-rule="evenodd" stroke="none"/>
      <path d="M-5.35 1.7 Q-5.35 -0.3 -4.0 -0.3 -2.7 -0.3 -2.7 1.7 -2.7 3.7 -4.0 3.7 -5.35 3.7 -5.35 1.7" fill="#1a171b" fill-rule="evenodd" stroke="none"/>
      <path d="M3.6 0.9 Q3.6 -0.1 4.6 -0.1 5.6 -0.1 5.6 0.9 5.6 1.9 4.6 1.9 3.6 1.9 3.6 0.9" fill="#ffffff" fill-rule="evenodd" stroke="none"/>
      <path d="M-4.15 0.7 Q-4.15 -0.3 -3.15 -0.3 -2.15 -0.3 -2.15 0.7 -2.15 1.7 -3.15 1.7 -4.15 1.7 -4.15 0.7" fill="#ffffff" fill-rule="evenodd" stroke="none"/>
      <path d="M7.9 7.55 Q8.15 8.1 5.2 9.8 1.3 11.95 -0.1 12.0 L-0.2 12.0 Q-2.2 11.95 -5.65 9.65 -8.2 7.85 -8.05 7.55 -7.6 6.45 -4.4 5.3 L-2.3 4.05 Q-0.95 3.2 -0.2 3.2 1.05 3.2 3.75 5.2 7.3 6.3 7.9 7.55" fill="#1a171b" fill-rule="evenodd" stroke="none"/>
      <path d="M7.6 7.75 Q7.65 7.9 6.8 8.2 5.45 8.6 4.15 9.5 1.85 11.15 -0.15 11.15 -2.05 11.15 -4.35 9.55 -5.6 8.65 -6.9 8.3 -7.75 8.05 -7.75 7.8 -7.5 7.35 -3.95 5.55 L-2.05 4.2 Q-0.9 3.25 -0.2 3.25 1.1 3.25 3.55 5.55 7.5 7.5 7.6 7.75" fill="#ffbb2b" fill-rule="evenodd" stroke="none"/>
      <path d="M1.05 5.4 L0.8 5.6 -0.6 7.8 Q-1.45 10.1 1.4 10.45 L2.25 10.55 Q1.0 11.15 -0.15 11.15 -2.05 11.15 -4.35 9.55 -5.6 8.65 -6.9 8.3 -7.75 8.05 -7.75 7.8 -7.4 7.15 -4.95 6.25 -2.35 5.3 -0.2 5.3 L1.05 5.4" fill="#ffebc0" fill-rule="evenodd" stroke="none"/>
    </g>
  </defs>
</svg>
